X: 022
M: 6/8
L: 1/8
K: G
|:\
E>FE EcA | FDF  G3 :|\
|:\
dfa  afd | gbg  fed |
efg  gfe | d>ed dBG |\
E>FE EcA | FDF  G3 :|

